lib/brands/logos/one-call.svg

<svg xmlns="http://www.w3.org/2000/svg" fill="none" aria-hidden="true" viewBox="0 0 152 76"><g id="One Call"><g id="Group"><g id="Vector"><path fill="#59575C" d="M145.448 45.8305C145.075 45.8344 144.704 45.7603 144.361 45.613C144.034 45.4793 143.737 45.2794 143.491 45.0258C143.243 44.7747 143.044 44.4798 142.904 44.156C142.759 43.8122 142.689 43.4416 142.697 43.0686C142.689 42.6956 142.759 42.3251 142.904 41.9813C143.047 41.659 143.246 41.3645 143.491 41.1114C143.747 40.8523 144.052 40.6467 144.388 40.5067C144.724 40.3666 145.084 40.295 145.448 40.2959C145.822 40.2865 146.194 40.3608 146.536 40.5134C146.863 40.6471 147.159 40.847 147.406 41.1005C147.656 41.3498 147.855 41.6452 147.993 41.9704C148.138 42.3142 148.208 42.6848 148.199 43.0577C148.206 43.4306 148.136 43.8008 147.993 44.1451C147.85 44.4674 147.651 44.7619 147.406 45.015C147.151 45.2663 146.852 45.469 146.525 45.613C146.184 45.7568 145.818 45.8308 145.448 45.8305ZM145.448 45.5912C145.942 45.5918 146.426 45.4466 146.838 45.1739C147.249 44.9012 147.572 44.5131 147.764 44.0581C147.887 43.7465 147.95 43.4144 147.949 43.0795C147.95 42.7481 147.887 42.4196 147.764 42.1117C147.642 41.8137 147.461 41.5436 147.232 41.318C146.762 40.8465 146.125 40.5806 145.459 40.5786C145.119 40.5788 144.782 40.6491 144.47 40.7852C144.173 40.9136 143.903 41.0982 143.676 41.3289C143.449 41.5566 143.268 41.8261 143.143 42.1226C143.021 42.4308 142.959 42.759 142.958 43.0904C142.955 43.416 143.015 43.7392 143.136 44.0414C143.258 44.3437 143.437 44.6191 143.665 44.8519C143.899 45.0851 144.178 45.2696 144.484 45.3947C144.79 45.5197 145.118 45.5829 145.448 45.5804V45.5912ZM144.361 41.6007H145.622C145.789 41.5977 145.954 41.6235 146.112 41.6768C146.241 41.7245 146.36 41.7985 146.46 41.8943C146.533 41.9552 146.589 42.0338 146.623 42.1226C146.667 42.2217 146.69 42.3293 146.688 42.438C146.693 42.5396 146.677 42.6411 146.642 42.7365C146.606 42.8318 146.552 42.9189 146.481 42.9925C146.333 43.1283 146.154 43.2255 145.959 43.2752L146.829 44.3626H146.318L145.503 43.2752H144.785V44.3626H144.361V41.6007ZM145.59 42.9816C145.759 42.9896 145.926 42.9439 146.068 42.8511C146.129 42.8087 146.178 42.7514 146.21 42.6848C146.242 42.6182 146.257 42.5445 146.253 42.4706C146.255 42.4027 146.24 42.3355 146.209 42.2748C146.179 42.2142 146.134 42.1619 146.079 42.1226C145.943 42.027 145.778 41.9809 145.611 41.9921H144.785V42.9925L145.59 42.9816Z"/><path fill="#59575C" d="M3.8 59.5092V59.4223C3.81215 57.8439 4.14031 56.284 4.76511 54.8346C5.38991 53.3851 6.2987 52.0755 7.43786 50.9829C8.57701 49.8904 9.92345 49.0371 11.3977 48.4734C12.872 47.9096 14.4443 47.6469 16.0217 47.7007C22.9916 47.7007 28.1565 52.8656 28.1565 59.3353V59.4223C28.1444 60.9992 27.8165 62.5577 27.1922 64.0058C26.568 65.454 25.66 66.7624 24.5218 67.8539C23.3837 68.9454 22.0384 69.7979 20.5655 70.3611C19.0925 70.9243 17.5217 71.1867 15.9456 71.133C8.97576 71.133 3.8 65.9681 3.8 59.5092ZM21.8608 59.5092V59.4223C21.8929 58.623 21.764 57.8254 21.4818 57.0769C21.1996 56.3285 20.7699 55.6443 20.2181 55.0652C19.6663 54.486 19.0038 54.0237 18.2699 53.7056C17.5359 53.3875 16.7455 53.2202 15.9456 53.2135C12.2813 53.2135 10.1066 56.0189 10.1066 59.3353V59.4223C10.0745 60.222 10.2034 61.0201 10.4854 61.7692C10.7675 62.5183 11.1971 63.2032 11.7487 63.7832C12.3003 64.3632 12.9627 64.8265 13.6967 65.1458C14.4307 65.4651 15.2214 65.6338 16.0217 65.6419C16.813 65.6464 17.5967 65.4882 18.3242 65.1772C19.0517 64.8662 19.7076 64.409 20.251 63.8339C20.7945 63.2588 21.214 62.5782 21.4834 61.8343C21.7528 61.0903 21.8665 60.2989 21.8173 59.5092H21.8608Z"/><path fill="#59575C" d="M30.3747 48.1248H36.7574V51.3107C38.2253 49.4296 40.1064 47.7007 43.3467 47.7007C48.1745 47.7007 50.9581 50.8975 50.9581 56.0624V70.6328H44.6515V58.074C44.6515 55.0511 43.2271 53.4962 40.7914 53.4962C38.3558 53.4962 36.8009 55.0511 36.8009 58.074V70.6328H30.3747V48.1248Z"/><path fill="#59575C" d="M53.3503 59.5092V59.4223C53.3503 52.9961 57.928 47.7007 64.4847 47.7007C71.9982 47.7007 75.4342 53.5397 75.4342 59.9333C75.4342 60.4335 75.4342 61.0207 75.3581 61.6078H59.6786C59.8795 62.8975 60.5553 64.0655 61.5733 64.8823C62.5913 65.6992 63.878 66.1058 65.1806 66.0224C66.1968 66.0277 67.2035 65.825 68.1384 65.4267C69.0734 65.0284 69.917 64.4429 70.6173 63.7064L74.2708 66.9684C73.1694 68.3351 71.7645 69.4261 70.1676 70.1547C68.5707 70.8833 66.8259 71.2294 65.0718 71.1656C58.3412 71.133 53.3503 66.3921 53.3503 59.5092ZM69.2255 57.6064C68.8449 54.7684 67.1704 52.8221 64.4847 52.8221C61.7989 52.8221 60.1353 54.7141 59.6134 57.6064H69.2255Z"/><path fill="#59575C" d="M77.2718 59.5092V59.4223C77.2495 57.8676 77.541 56.3243 78.129 54.8849C78.717 53.4455 79.5893 52.1396 80.6938 51.0452C81.7984 49.9509 83.1123 49.0906 84.5571 48.5159C86.0018 47.9412 87.5477 47.664 89.1021 47.7007C90.7886 47.6051 92.4746 47.8963 94.0312 48.5521C95.5879 49.208 96.974 50.211 98.0836 51.4847L94.18 55.6818C93.5648 54.9142 92.7854 54.294 91.8992 53.8669C91.013 53.4398 90.0424 53.2165 89.0586 53.2135C85.8618 53.2135 83.6219 56.0189 83.6219 59.3353V59.4223C83.6219 62.8691 85.7966 65.6419 89.3413 65.6419C90.3206 65.6144 91.2838 65.3871 92.172 64.9739C93.0602 64.5607 93.8545 63.9702 94.5062 63.2388L98.2358 67.0228C97.1257 68.3708 95.7184 69.4434 94.1243 70.1565C92.5302 70.8696 90.7926 71.2038 89.0478 71.133C87.5038 71.1711 85.968 70.8976 84.532 70.3288C83.0961 69.7601 81.7895 68.9078 80.6904 67.8229C79.5912 66.7379 78.722 65.4425 78.1346 64.0141C77.5473 62.5857 77.2538 61.0536 77.2718 59.5092Z"/><path fill="#59575C" d="M99.2362 64.174V64.087C99.2362 59.1613 102.977 56.8996 108.305 56.8996C110.179 56.8839 112.041 57.1967 113.807 57.8239V57.4216C113.807 54.7793 112.165 53.3114 108.968 53.3114C106.839 53.3118 104.73 53.7254 102.759 54.5292L101.193 49.6797C103.92 48.4289 106.893 47.8082 109.892 47.8638C113.372 47.8638 115.894 48.7989 117.504 50.3864C119.113 51.974 119.928 54.551 119.928 57.5738V70.6219H113.763V68.1971C112.908 69.1438 111.854 69.8908 110.678 70.385C109.502 70.8792 108.231 71.1086 106.956 71.0569C102.727 71.0569 99.2362 68.6212 99.2362 64.174ZM113.894 62.6952V61.6078C112.611 61.0358 111.22 60.7466 109.816 60.7597C107.087 60.7597 105.412 61.847 105.412 63.8695V63.9456C105.412 65.6745 106.837 66.6749 108.892 66.6749C111.871 66.6422 113.894 65.033 113.894 62.6952Z"/><path fill="#59575C" d="M123.321 40.024H129.704V70.6328H123.321V40.024Z"/><path fill="#59575C" d="M133.901 40.024H140.338V70.6328H133.955L133.901 40.024Z"/></g><g id="Group_2"><path id="Vector_2" fill="#732E8C" d="M46.8261 22.3548V22.2243C46.8261 12.6013 54.568 4.82678 65.0174 4.82678C75.4668 4.82678 83.0782 12.5143 83.0782 22.1482V22.2678C83.0782 31.9016 75.3254 39.6653 64.8978 39.6653C54.4702 39.6653 46.8261 31.9778 46.8261 22.3548ZM74.0097 22.3548V22.2243C74.0097 17.4074 70.5411 13.1776 65.398 13.1776C60.07 13.1776 56.8949 17.2769 56.8949 22.1047V22.2243C56.8949 27.063 60.3853 31.2819 65.5176 31.2819C70.8347 31.3254 74.0097 27.1717 74.0097 22.3548Z"/><path id="Vector_3" fill="#732E8C" d="M74.0099 22.3438V22.2242C73.9802 19.9917 74.4003 17.776 75.2449 15.7092C76.0896 13.6424 77.3417 11.7668 78.9266 10.1941C80.5114 8.62142 82.3966 7.38385 84.4699 6.55512C86.5431 5.72639 88.762 5.32347 90.9942 5.37037C97.0942 5.37037 100.9 7.42545 103.934 10.8071L98.312 16.8527C96.257 14.678 94.191 13.2862 90.9399 13.2862C86.3404 13.2862 83.0784 17.3312 83.0784 22.1155V22.2242C83.0784 27.1825 86.2752 31.173 91.2987 31.173C94.3759 31.173 96.4853 29.8356 98.7252 27.7262L104.162 33.1629C102.561 35.1022 100.534 36.6451 98.2387 37.6712C95.9431 38.6973 93.4414 39.1788 90.929 39.078C88.7083 39.1308 86.4998 38.7354 84.4354 37.9155C82.371 37.0956 80.493 35.8679 78.9138 34.3059C77.3345 32.7439 76.0863 30.8795 75.2437 28.8242C74.4011 26.7689 73.9815 24.5649 74.0099 22.3438V22.3438Z"/><path id="Vector_4" fill="url(#paint0_linear_93_16333)" d="M74.01 22.3439C74.01 27.1717 70.8349 31.3253 65.5178 31.3253H64.9524V39.7305C67.4936 39.7615 70.0134 39.2633 72.3516 38.2673C74.6897 37.2714 76.795 35.7997 78.5333 33.9458C75.5843 30.8075 73.9635 26.6501 74.01 22.3439Z" style="mix-blend-mode:multiply"/><path id="Vector_5" fill="url(#paint1_linear_93_16333)" d="M90.9941 5.37034C88.6858 5.33532 86.395 5.7758 84.2643 6.66437C82.1336 7.55293 80.2087 8.87056 78.6092 10.5352C81.5021 13.6916 83.098 17.8231 83.0782 22.1046C83.0782 17.3311 86.3402 13.2862 90.9397 13.2862H91.1354V5.37034H90.9941Z" opacity="0.67" style="mix-blend-mode:multiply"/></g></g></g><defs><linearGradient id="paint0_linear_93_16333" x1="65.8114" x2="76.6196" y1="34.1198" y2="28.5308" gradientUnits="userSpaceOnUse"><stop stop-color="white" stop-opacity="0"/><stop offset="1"/></linearGradient><linearGradient id="paint1_linear_93_16333" x1="82.2844" x2="89.2434" y1="15.1021" y2="11.1876" gradientUnits="userSpaceOnUse"><stop/><stop offset="1" stop-color="white" stop-opacity="0"/></linearGradient></defs></svg>

<svg xmlns="http://www.w3.org/2000/svg" fill="none" aria-hidden="true" viewBox="0 0 152 76"><path fill="#59575C" d="M145.448 45.83a2.686 2.686 0 0 1-1.087-.217 2.565 2.565 0 0 1-.87-.587 2.844 2.844 0 0 1-.587-.87 2.651 2.651 0 0 1-.207-1.087 2.65 2.65 0 0 1 .207-1.088c.143-.322.342-.617.587-.87a2.746 2.746 0 0 1 1.957-.815c.374-.01.746.065 1.088.217.327.134.623.334.87.587.25.25.449.545.587.87.145.344.215.715.206 1.088a2.7 2.7 0 0 1-.206 1.087 3.001 3.001 0 0 1-.587.87 2.949 2.949 0 0 1-.881.598 2.765 2.765 0 0 1-1.077.218Zm0-.239a2.514 2.514 0 0 0 2.316-1.533 2.644 2.644 0 0 0 0-1.946 2.513 2.513 0 0 0-2.305-1.533 2.513 2.513 0 0 0-1.783.75 2.5 2.5 0 0 0-.533.794 2.65 2.65 0 0 0-.185.967 2.487 2.487 0 0 0 .707 1.761 2.502 2.502 0 0 0 1.783.73v.01Zm-1.087-3.99h1.261c.167-.003.332.023.49.076a.996.996 0 0 1 .348.217c.073.061.129.14.163.229a.741.741 0 0 1 .065.315.759.759 0 0 1-.207.554 1.216 1.216 0 0 1-.522.283l.87 1.088h-.511l-.815-1.088h-.718v1.088h-.424V41.6Zm1.229 1.38a.804.804 0 0 0 .478-.13.43.43 0 0 0 .185-.38.413.413 0 0 0-.174-.348.728.728 0 0 0-.468-.13h-.826v1l.805-.011ZM3.8 59.51v-.088a11.819 11.819 0 0 1 12.222-11.721c6.97 0 12.135 5.165 12.135 11.634v.087a11.806 11.806 0 0 1-12.211 11.711c-6.97 0-12.146-5.165-12.146-11.624Zm18.06 0v-.088a5.97 5.97 0 0 0-5.914-6.208c-3.665 0-5.84 2.805-5.84 6.121v.087a5.98 5.98 0 0 0 5.916 6.22 5.774 5.774 0 0 0 5.795-6.133h.044Zm8.515-11.385h6.382v3.186c1.468-1.881 3.35-3.61 6.59-3.61 4.828 0 7.611 3.197 7.611 8.361v14.57h-6.306V58.075c0-3.023-1.425-4.578-3.86-4.578-2.436 0-3.991 1.555-3.991 4.578v12.559h-6.426V48.125ZM53.35 59.51v-.088c0-6.426 4.578-11.721 11.135-11.721 7.513 0 10.95 5.839 10.95 12.232 0 .5 0 1.088-.077 1.675h-15.68a5.23 5.23 0 0 0 5.503 4.414 7.448 7.448 0 0 0 5.436-2.316l3.654 3.262a11.287 11.287 0 0 1-9.2 4.198c-6.73-.033-11.72-4.774-11.72-11.657Zm15.875-1.904c-.38-2.838-2.055-4.784-4.74-4.784-2.686 0-4.35 1.892-4.872 4.784h9.612Zm8.047 1.904v-.088a11.56 11.56 0 0 1 11.83-11.721 11.08 11.08 0 0 1 8.982 3.784l-3.904 4.197a6.59 6.59 0 0 0-5.121-2.468c-3.197 0-5.437 2.805-5.437 6.121v.087c0 3.447 2.175 6.22 5.72 6.22a7.19 7.19 0 0 0 5.164-2.403l3.73 3.784a11.308 11.308 0 0 1-9.188 4.11 11.492 11.492 0 0 1-11.776-11.624Zm21.964 4.664v-.087c0-4.926 3.741-7.187 9.069-7.187a16.038 16.038 0 0 1 5.502.924v-.402c0-2.643-1.642-4.11-4.839-4.11a16.44 16.44 0 0 0-6.209 1.217l-1.566-4.85a19.977 19.977 0 0 1 8.699-1.815c3.48 0 6.002.935 7.612 2.522 1.609 1.588 2.424 4.165 2.424 7.188v13.048h-6.165v-2.425a8.698 8.698 0 0 1-6.807 2.86c-4.229 0-7.72-2.436-7.72-6.883Zm14.658-1.479v-1.087a9.791 9.791 0 0 0-4.078-.848c-2.729 0-4.404 1.087-4.404 3.11v.076c0 1.728 1.425 2.729 3.48 2.729 2.979-.033 5.002-1.642 5.002-3.98Zm9.427-22.671h6.383v30.609h-6.383V40.024Zm10.58 0h6.437v30.609h-6.383l-.054-30.609Z"/><path fill="#732E8C" d="M46.826 22.355v-.13c0-9.624 7.742-17.398 18.191-17.398 10.45 0 18.061 7.687 18.061 17.321v.12c0 9.634-7.753 17.397-18.18 17.397-10.428 0-18.072-7.687-18.072-17.31Zm27.184 0v-.13c0-4.818-3.469-9.047-8.612-9.047-5.328 0-8.503 4.099-8.503 8.927v.12c0 4.838 3.49 9.057 8.623 9.057 5.317.043 8.492-4.11 8.492-8.927Z"/><path fill="#732E8C" d="M74.01 22.344v-.12A16.638 16.638 0 0 1 90.994 5.37c6.1 0 9.906 2.055 12.94 5.437l-5.622 6.046c-2.055-2.175-4.121-3.567-7.372-3.567-4.6 0-7.862 4.045-7.862 8.83v.108c0 4.959 3.197 8.949 8.22 8.949 3.078 0 5.187-1.337 7.427-3.447l5.437 5.437a16.316 16.316 0 0 1-13.233 5.915 16.528 16.528 0 0 1-16.92-16.734Z"/><path fill="url(#a)" d="M74.01 22.344c0 4.828-3.175 8.981-8.492 8.981h-.566v8.405a18.31 18.31 0 0 0 13.581-5.784 16.68 16.68 0 0 1-4.523-11.602Z" style="mix-blend-mode:multiply"/><path fill="url(#b)" d="M90.994 5.37a16.821 16.821 0 0 0-12.385 5.165 17.007 17.007 0 0 1 4.47 11.57c0-4.774 3.261-8.819 7.86-8.819h.196V5.37h-.14Z" opacity=".67" style="mix-blend-mode:multiply"/><defs><linearGradient id="a" x1="65.811" x2="76.62" y1="34.12" y2="28.531" gradientUnits="userSpaceOnUse"><stop stop-color="#fff" stop-opacity="0"/><stop offset="1"/></linearGradient><linearGradient id="b" x1="82.284" x2="89.243" y1="15.102" y2="11.188" gradientUnits="userSpaceOnUse"><stop/><stop offset="1" stop-color="#fff" stop-opacity="0"/></linearGradient></defs></svg>
